X:1
T:Title
%%score { ( 1 3 ) | 2 }
L:1/8
Q:1/4=108
M:6/8
K:A
V:1 treble nm="Grand Piano"
V:3 treble 
V:2 bass 
V:1
 [FA]2 [DF] [FA]2 [DF] | [Fd]3 [FA]3 | B2 d =G2 B | [FA]3- [FA]2 [DF] | [C=G]2 [CE] [Ec]2 [GB] | %5
w: T.~H.~Ervin * * *|||||
 [FA]3 F3 | E2 F G2 B | A6 | [FA]2 [DF] [FA]2 [DF] | [Fd]3 [FA]3 | B2 d =G2 B | [FA]3- [FA]2 [FA] | %12
w: |||||||
 [EG]2 [EB] [Ge]2 d | c3 [EA]3 | [Fd]2 [FB] A2 G |[M:3/8] A3 |[M:2/4] A G2 A |[M:3/4] c3 B3 | %18
w: ||||||
 A3 =G3 | F2 A d2- [Fd-] | [Fd]2 A G2 A | c2- [=Gc] B2- [GB] | A3 =G3 | FF FF FF | FF A G2 A | %25
w: |||||||
 d2- [Fd-] [Fd]2 [Fd] | c2- [=Gc] =c2- [Ac] | B6- | B2 z2 z2 | A3 F3 | [CE]4- [CE]D | D6- | %32
w: |||||||
[M:1/4] D2 |] %33
w: |
V:2
 [D,D]2 [D,A,] [D,D]2 [D,A,] | [D,A,]3 [D,D]3 | [=G,D=G]2 [G,B,D] [G,B,D]2 [G,DG] | %3
 [D,D]3- [D,D]2 [D,A,] | [A,,A,]2 [A,,A,] [A,,A,]2 [A,,A,] | [D,A,]3 [D,A,D]3 | %6
 [E,G,D]2 [E,A,D] [E,B,D]2 [E,G,D] | [A,C]6 | [D,D]2 [D,A,] [D,D]2 [D,A,] | [D,A,]3 [D,D]3 | %10
 [=G,D=G]2 [G,B,D] [G,B,D]2 [G,DG] | [D,D]3- [D,D]2 [D,D] | [E,B,]2 [E,G,] [E,B,]2 [E,G,E] | %13
 [A,E]3 [C,A,]3 | [D,A,]2 [D,D] [E,CE]2 [E,B,E] |[M:3/8] [A,CE]3 |[M:2/4] z4 | %17
[M:3/4] [E,A,]2 [E,A,] [A,,A,]2 [A,,A,] | [E,A,C]2 [E,A,] [A,,A,]2 [A,,A,] | %19
 [D,A,D]2 [D,F,D] [D,A,]2 [D,A,] | [D,A,]2 z2 z2 | [E,A,]2 [E,A,] [A,,A,]2 [A,,A,] | %22
 [E,A,C]2 [E,A,] [A,,A,]2 [A,,A,] | [D,A,D]2 [D,A,D] [D,A,D]2 [D,A,D] | [D,A,D]2[K:treble] FF FF | %25
 [D,A,]2 [D,A,] [D,A,]2 [D,A,] | [E,A,]2 [E,A,] [F,D]2 [F,D] | [=G,D=G]2 [G,D] [G,D]2 [G,D] | %28
 [=G,D]2 [G,B,] [G,C]2 [G,D=G] | [A,DF]3[K:bass] [A,D]3 | [A,,=G,]4- [A,,G,][D,F,A,] | [D,F,A,]6- | %32
[M:1/4] [D,F,A,]2 |] %33
V:3
 x6 | x6 | x6 | x6 | x6 | x6 | x6 | x6 | x6 | x6 | x6 | x6 | x6 | x6 | x6 |[M:3/8] x3 |[M:2/4] x4 | %17
[M:3/4] =G2 G G2 G | z2 C C2 C | z2 z .F3 | x6 | =G2 z .G3 | z2 C C2 C | x6 | x6 | F2 z2 z2 | %26
 =G2 z .A3 | z2 =G G2 G | =G2 [Bd] [Ac]2 B | x6 | x6 | x6 |[M:1/4] x2 |] %33

